X:0344
T:The Lillie.
M:C
L:1/8
Q:1/2=104
I: :: :: ::
Z:Jack Campin * www.campin.me.uk * 2009
K:D
dcdA  B2AG|   F2ED E/E/E E2|dcdA    B2AG|FDEF D/D/D D2:|
FDAD  F2FA|   FDAF E/E/E E2|FDAD    F2AF|EDEF D/D/D D2:|
dcdA TB2de|{g}f2ed e/e/e ea|gfed {c}B2AG|EDEF D/D/D D2:|
<end>
<start>
